X:1
T:Lady Grace Douglas
T:Lady Grace Douglas
T:Niel Gow
C:Niel Gow
L:1/8
Q:1/8=232
M:4/4
K:A
V:1 treble 
V:1
|: f | e2 cA B2 GE | A2 EC DB, B,f | e2 cA B2 GE | AE FD CA, A,f | e2 cA B2 GE | A2 EC DB, B,f | %7
 e2 cA B2 GE | AE FD CA, A,D | C/D/E EA FA EA | DA CA BB, B,D | C/D/E DA FA EA | CE AE CA, A,D | %13
 C/D/E EA FA EA | DA CA BB, B,D | CE Ac BE Af | ec Bd cAA :| %17

